X:1
T:Title
%%score 1 2 3 4
L:1/8
M:3/2
K:F
V:1 treble nm="Part_1"
V:2 treble nm="Part_2"
V:3 bass nm="Part_3"
V:4 bass nm="Part_4"
V:1
 A4 G8 |[M:4/2] z4 c4 A4 z4 |[M:3/2] z A/B/ c/d/c/B/ AG/F/ G2 FF/G/ A/B/A/G/ | %3
w: A- ve|A- ve|Cle men- tis- si- ma Re- gi- na Ma- ri- a Cle- men- tis si- ma Re-|
[M:2/2] FF/E/ D2 EE/F/ G/A/G/F/ | ED/C/ D2 E4 |[M:4/2] z4 z2 z G c2 AA d2 =BB | %6
w: gi- na Ma- ri- a Cle- men- tis- si- ma Re-|i- na Ma- ri- a|Re- gi- na Re- gi- na Re-|
[M:2/2] cG/G/ G2 A4 |[M:3/2] G2 G2 F/G/A/B/ c4 cc |[M:2/2] d3 A/A/ A2 G=B | %9
w: gi- na Ma- ri- a|ma- ter ma- * * * * ter Al-|tis- si- mi De- i Al-|
[M:3/2] =B3 c/A/ G2 Ac AA/A/AF/G/ |[M:2/2] E>E F2 z4 |[M:3/2] z c d3 c/B/ A3 G/F<EE/ | %12
w: tis- si- mi De\-i * et Do- mi- na me\-a * Dul|cis- si- ma|et do- mi- na me- a dul- cis- si|
 F2 A2 B3 =B B2 c2 |[M:2/2] ^c3 c c4 | d3 c BA G2 | ^F2 z2 z4 | =BBcc _B2 A2 | %17
w: ma dul- cis- si- ma dul-|cis- si- ma|* se- re- re me-|i|mi- se- re- re me- i|
[M:4/2] d4 c4 B2 B2 A B2 A |[M:2/2] B2 d2 c3 c/c/ | B4 z4 | z2 d2 c3 c/G/ |[M:4/2] A4 z4 F4 G4 | %22
w: mi- se- re- re me- * *|i et o- ra pro|me|et o- ra pro|me quæ se-|
[M:2/2] A2 A2 B3 B | c4 d2 dd | A B2 A B4 | c2 c2 d2 B2- | B2 A2 B G2 B | A/G/A/B/ c3 B/A/ G2 | %28
w: des ad la- te-|ra fi- li- i|tu- * * i|Ie- su Chri- *|* * sti Ie- su|Chri- * * * * * * *|
 A A2 F E F2 E | F2 c2 B2 A2 | d>dcc B2 A2 | z4 d3 A | AA B/c/A/B/ G/A/F/G/ E/F/D/E/ | %33
w: sti Ie- su Chri- * *|sti et vi- vi|re- demp- to- ris me- i|re- demp-|to- ris me- * * * * * * * * * * *|
[M:3/2] C/D/4E/4F/4G/4A/4B/4 c2 A2 G3 G_AA |[M:2/2] G4 F4 | z8 |[M:3/2] z12 | %37
w: * * * * * * * * i re demp- to- ris|me- i|||
[M:6/2] z2 F3 FFF E2 F2 G4 A8 |] %38
w: Re- demp- to- ris me- * * i|
V:2
 F6 ED E F2 E |[M:4/2] F4 z4 c4 A4 |[M:3/2] z4 z4 z A/B/ c/d/c/B/ |[M:2/2] AA/G/ G2 G4 | %4
w: A- * * * * *|ve A- ve|Cel- men- tis- si- ma Re-|gi- na Ma- ri- a|
 z4 z G c2 |[M:4/2] A2 z A d2 =B2 z2 z c BA/^F/GG/G/ |[M:2/2] EE/E/ E2 F4 |[M:3/2] E2 E2 z2 A4 AA | %8
w: Re- gi-|na Re- gi- na Re- gi- na Ma\-ri- * a Re-|gi- na Ma- ri- a|Ma- ter Ma- ter Al-|
[M:2/2] B3 ^F/F/ F2 GG |[M:3/2] G3 E/F/ E2 F2 z4 |[M:2/2] z cAA/A/ AF/G<EE/ | %11
w: tis- si- mi De- i Al-|tis- si- mi De\-i *|et Do- mi- na me\-a * Dul- cis- si|
[M:3/2] FA B3 A/G/ c3 B/A<GG/ | F2 F2 F3 G G2 E2 |[M:2/2] E3 E E4 | z4 z2 d2- | dcBA G2 ^F2 | %16
w: ma et Do- mi- na me- a Dul- cis- si-|ma Dul- cis- si- ma Dul-|cis- si- ma|mi-|* se- re- re me- i|
 GGEF D2 C2 |[M:4/2] z8 d4 c4 |[M:2/2] B2 B2 A B2 A | B2 d2 c3 c/c/ | B2 B2 A3 E/E/ | %21
w: mi- se- re re me- i|mi- se-|re- re me- * *|i et o- ra pro|me et o- ra pro|
[M:4/2] F4 z8 z4 |[M:2/2] F4 G4 | A2 A2 B3 B | c4 d2 dd | A B2 A B4 | c2 c2 d/c/B/A/B/c/d/B/ | %27
w: me|quæ se-|des ad la- te-|ra fi- li- i|tu- * * i|Ie- su Chri- * * * * * * *|
 c>BA G/F/ E F2 E | F F2 A G4 | F4 z2 c2 | B2 A2 d>dcc | B2 A2 z4 | z4 z4 |[M:3/2] z4 z2 E3 EFF | %34
w: |sti Ie- su Chri-|sti et|vi- vi re- demp- to- ris|me- i||Re- demp- to- ris|
[M:2/2] E/C/ F2 E F2 F2 | c2 A2 d3 A | %36
w: me- * * * * i|vi- vi Re- demp-|
[M:3/2] AA B/c/A/B/ G/A/F/G/ E/F/D/E/ C/D/4E/4F/4G/4A/4B/4 c2 |[M:6/2] A2 d3 cBA G2 F4 E2 F8 |] %38
w: to- ris me- * * * * * * * * * * * * * * * * * * *|i Re- demp- to- ris me- * * i|
V:3
 F,4 C,8 |[M:4/2] z4 F,8 F,,4 |[M:3/2] z F,/G,/ A,/B,/A,/G,/ F,E,/D,/ C,2 F,,3 F, | %3
w: A- ve|A- ve|Cle- men- tis si- ma Re- gi- na Ma- ri- a Re-|
[M:2/2] F,F,/C,/G,G,, C,C,/D,/ E,/F,/E,/D,/ | C,B,,/A,,/ G,,2 C,2 z C, | %5
w: gi- na Ma- ri- * a Cle men- tis- si- ma Re-|gi- na Ma- ri- a Re-|
[M:4/2] F,2 D,2 z D, G,2 E,E, F,2 D,D, G,2 |[M:2/2] C,2 C,C, F,,4 |[M:3/2] C,2 C,2 z2 F,4 F,F, | %8
w: gi- na Re- gi- na Re- gi- na Re- gi-|na Ma- ri- a|Ma- ter Ma- ter Al-|
[M:2/2] B,,3 D,/D,/ D,2 G,,G, |[M:3/2] G,3 C,/F,/ C,2 F,,2 z4 | %10
w: tis- si- mi De- i Al-|tis- si- mi De\-i *|
[M:2/2] z C,F,F,/F,/ F,D,/_E,<C,C,/ |[M:3/2] F,2 z2 z4 z4 | z2 F,2 B,,3 G,, G,,2 C,2 | %13
w: et Do- mi- na me\-a * dul- cis- si-|ma|Dul- cis- si- ma Dul-|
[M:2/2] A,,3 A,, A,,4 | D,C,B,,A,, G,,4 | D,2 z2 z4 | G,,G,,C,A,, B,,2 F,,2 | %17
w: cis- si- ma|mi- se- re- re me-|i|mi- se- re- re me- i|
[M:4/2] B,,4 A,,4 B,,2 B,,2 F,,4 |[M:2/2] B,,2 B,,2 F,3 F,/F,/ | B,,4 z4 | z2 B,,2 F,,3 C,/C,/ | %21
w: mi- se- re- re me|i et o- ra pro|me|et o- ra pro|
[M:4/2] F,,4 C,4 D,4 E,2 E,2 |[M:2/2] F,E, D,C, B,,2 G,,2 | F,,4 B,,2 B,,B,, | F,2 F,,2 B,,4 | %25
w: me quæ se- des ad|la- * * * * te-|ra fi- li- i|tui- * i|
 F,2 F,2 B,,3 A,,/G,,/ | F,,4 B,, _E,2 B,, | F,3 E,/D,/ C,4 | F,, F,,2 F,, C,4 | %29
w: Ie- su Chri- * *|* sti Ie- su|Chri\-- * * *|sti Ie- su Chri-|
 F,,2 F,2 B,,2 F,2 | B,,>B,,F,,F,, B,,2 F,2 | z4 B,,3 D, | D,D,G,F, E,D,C,B,, | %33
w: sti et vi- vi|Re- demp- to- ris me- i|Re- demp-|to- ris me- * * * * *|
[M:3/2] C,4 F,,2 C,3 C,B,,B,, |[M:2/2] C,4 F,,4- | F,,4 z4 |[M:3/2] D,>C,B,,B,, C,8 | %37
w: * i Re- demp- to- ris|me- i||Re- demp- to- ris me-|
[M:6/2] F,,2 B,,3 A,,B,,F,, C,8 F,,8 |] %38
w: i Re- demp- to- ris me- i|
V:4
 F,4 C,8 |[M:4/2] F,8 F,,8 |[M:3/2] z F,/G,/A,/B,/A,/G,/ F,E,/D,/ C,2 F,,3 F, | %3
[M:2/2] F,F,/C,/ G,2 C,C,/D,/E,/F,/E,/D,/ | C,B,,/A,,/ G,,2 C,3 C, | %5
[M:4/2] F,2 D,3 D, G,2 E,2 F,2 D,2 G,2 |[M:2/2] C,2 C,C, F,,4 |[M:3/2] C,2 C,2 F,2 F,4 F,F, | %8
[M:2/2] B,,3 D,/D,/ D,2 G,,G,, |[M:3/2] G,,3 C,/F,,/ C,2 F,,F,, F,F,/F,/F,D,/_E,/ | %10
[M:2/2] C,C, F,F,/F,/ F, D,/_E,<C,C,/ |[M:3/2] F,,F,, B,,3 F,, F,,4 C,2 | %12
 F,,2 F,,2 B,,3 G,, G,,2 C,2 |[M:2/2] A,,3 A,, A,,4 | D,C,B,,A,, G,,4 | D,2 G,^F, G,2 D,2 | %16
 G,,G,,C,A,, B,,2 F,,2 |[M:4/2] B,,4 A,,4 B,,2 B,,2 F,,4 |[M:2/2] B,,2 B,,2 F,,3 F,,/F,,/ | %19
 B,,2 B,,2 F,,3 C,/C,/ | G,,2 B,,2 F,,3 C,/C,/ |[M:4/2] F,,4 C,4 D,4 E,2 E,2 | %22
[M:2/2] F,E,D,C, B,,2 G,,2 | F,,4 B,,2 B,,B,, | F,,4 B,,4 | F,,4 B,,3 A,,/G,,/ | %26
 F,,4 B,, _E,2 B,, | F,3 E,/D,/ C,4 | F,, F,,2 F,, C,4 | F,,2 F,2 B,,2 F,,2 | %30
 B,,>B,, F,,2 B,,2 F,,2 | B,,2 F,,2 B,,3 D, | D,D,G,F, E,D,C,B,, |[M:3/2] C,4 F,,2 C,3 C,B,,B,, | %34
[M:2/2] C,4 F,,2 F,,2 | F,,2 F,,2 B,,3 D, |[M:3/2] D,>C, B,,2 C,8 | %37
[M:6/2] F,,2 B,,3 A,,B,,F,, C,8 F,,8 |] %38

